icons-dark/apps/48/kmouth.svg

<?xml version="1.0" encoding="UTF-8" standalone="no"?>

<!-- Created with Inkscape (http://www.inkscape.org/) -->
<svg width="48" version="1.1" xmlns="http://www.w3.org/2000/svg" height="48" xmlns:xlink="http://www.w3.org/1999/xlink" xmlns:inkscape="http://www.inkscape.org/namespaces/inkscape">
 <defs id="defs5455">
  <linearGradient inkscape:collect="always" xlink:href="#linearGradient4298" id="linearGradient4416" y1="43.999973" y2="4" x2="0" gradientUnits="userSpaceOnUse"/>
  <linearGradient inkscape:collect="always" id="linearGradient4298">
   <stop style="stop-color:#42a603" id="stop4300"/>
   <stop offset="1" style="stop-color:#78da06" id="stop4302"/>
  </linearGradient>
  <linearGradient inkscape:collect="always" xlink:href="#linearGradient4410" id="linearGradient4183" y1="8.99996" x1="9" y2="23" x2="23.00001" gradientUnits="userSpaceOnUse" gradientTransform="matrix(1.4285731 0 0 1.4285663 385.71424 501.1419)"/>
  <linearGradient inkscape:collect="always" id="linearGradient4410">
   <stop style="stop-color:#383e51" id="stop4412"/>
   <stop offset="1" style="stop-color:#655c6f;stop-opacity:0" id="stop4414"/>
  </linearGradient>
  <linearGradient inkscape:collect="always" id="linearGradient4374">
   <stop style="stop-color:#bcfd93" id="stop4376"/>
   <stop offset="1" style="stop-color:#fafff5" id="stop4378"/>
  </linearGradient>
  <linearGradient inkscape:collect="always" xlink:href="#linearGradient4374" id="linearGradient4287" y1="19.03588" y2="3.035877" x2="0" gradientUnits="userSpaceOnUse"/>
 </defs>
 <metadata id="metadata5458"/>
 <g inkscape:label="Capa 1" inkscape:groupmode="layer" id="layer1" transform="matrix(1 0 0 1 -384.57143 -499.798)">
  <path style="fill:url(#linearGradient4416);fill-rule:evenodd" id="path4445" d="M 4 4 L 4 34 L 24 34 L 35 44 L 35 34 L 44 34 L 44 4 L 4 4 z " transform="matrix(1 0 0 1 384.57143 499.798)"/>
  <path inkscape:connector-curvature="0" style="fill:url(#linearGradient4183);opacity:0.2;fill-rule:evenodd" id="path4164" d="m 409.57143,510.798 -6,4 0,1 0,1 -1,-1 0,6 -2,0 26,25.99997 2,0 0,-17.99997 -8,-8 z"/>
  <path inkscape:label="Capa 1" inkscape:connector-curvature="0" style="stroke-opacity:0.550265;fill:url(#linearGradient4287);stroke-width:2.8" id="path4173" d="M 10.988281,3.0397832 6,7.035877 6,8 6,15 6,15.003906 10.988281,19 11,19 l 1,0 0,-0.470703 0,-14.49342 0,-1 -1,0 z M 11,4.2714844 11,17.728516 7,14.523438 7,7.4765625 Z m 6.029297,0.1582031 -0.771485,0.6308594 C 17.395075,6.8327975 17.999746,8.8942379 18,11 c -0.0041,2.103883 -0.611419,4.162467 -1.75,5.931641 l 0.783203,0.642578 C 18.314755,15.620976 18.998306,13.336135 19,11 18.996386,8.6647989 18.311499,6.3813898 17.029297,4.4296875 Z M 14.689453,6.3457031 13.908203,6.984375 C 14.619998,8.203169 14.996674,9.5885831 15,11 c -0.0024,1.411901 -0.3784,2.798021 -1.089844,4.017578 l 0.78125,0.640625 C 15.544637,14.25403 15.997191,12.643075 16,11 15.99589,9.3580672 15.542683,7.7485432 14.689453,6.3457031 Z M 3,8.035877 l 0,6 2,0 0,-6 z" transform="matrix(1 0 0 1 397.57143 507.76212)"/>
 </g>
</svg>

<svg width="48" xmlns="http://www.w3.org/2000/svg" height="48">
 <defs>
  <linearGradient id="a" y1="44" y2="4" x2="0" gradientUnits="userSpaceOnUse">
   <stop stop-color="#42a603"/>
   <stop offset="1" stop-color="#78da06"/>
  </linearGradient>
  <linearGradient id="b" y1="514" x1="398.57" y2="534" x2="418.57" gradientUnits="userSpaceOnUse">
   <stop stop-color="#383e51"/>
   <stop offset="1" stop-color="#655c6f" stop-opacity="0"/>
  </linearGradient>
  <linearGradient id="c" y1="19.04" y2="3.036" x2="0" gradientUnits="userSpaceOnUse">
   <stop stop-color="#bcfd93"/>
   <stop offset="1" stop-color="#fafff5"/>
  </linearGradient>
 </defs>
 <g transform="translate(-384.57-499.8)">
  <g fill-rule="evenodd">
   <path fill="url(#a)" d="m4 4v30h20l11 10v-10h9v-30z" transform="translate(384.57 499.8)"/>
   <path opacity=".2" fill="url(#b)" d="m409.57 510.8l-6 4v2l-1-1v6h-2l26 26h2v-18l-8-8z"/>
  </g>
  <path stroke-opacity=".55" fill="url(#c)" stroke-width="2.8" d="m10.988 3.04l-4.988 3.996v7.968l4.988 3.996h1.012v-15.964h-1zm.012 1.232v13.457l-4-3.205v-7.05zm6.03.158l-.771.631c1.137 1.772 1.742 3.834 1.742 5.939-.004 2.104-.611 4.162-1.75 5.932l.783.643c1.282-1.953 1.965-4.238 1.967-6.574-.004-2.335-.689-4.619-1.971-6.57m-2.34 1.916l-.781.639c.712 1.219 1.088 2.604 1.092 4.02-.002 1.412-.378 2.798-1.09 4.02l.781.641c.853-1.404 1.306-3.02 1.309-4.658-.004-1.642-.457-3.251-1.311-4.654m-11.689 1.69v6h2v-6z" transform="translate(397.57 507.76)"/>
 </g>
</svg>
